X: 1
T: Branle des Chevaux   (G)
T: Horseplay
C: T.Arbeau
S: printed MS of unknown origin
Z: 2006 John Chambers <jc@trillian.mit.edu>
M: C|
L: 1/4
K: Gmix
|: "G"G>A BB | "F"cB Ac | "G"BA GF | "Am"E2 "Dm"D2 \
|  "G"G>A BB | "F"cB Ac | "G"BG "F"AA | "G"G4 :|
|: "G"d>c "F"AA/B/ | cB/A/ "G"GB | "F"AG "Dm"FG | "F"A2 A2 \
|  "G"dc/B/ "F"AA/B/ | cB/A/ "G"GB | "F"AG GF | "G"G4 :|
